public/assets/scene-ground.svg

<svg width="1440" height="126" viewBox="0 0 1440 126" fill="none" xmlns="http://www.w3.org/2000/svg">
<g filter="url(#filter0_n_43_36)">
<path d="M33.5 8.03528C43.9 -6.51738 58.1667 1.97167 64 8.03528L81 25.6749L527 16.5L566 21.1641H590.5L618.5 25.6749H699.5H726L1347 21.8162C1353.33 15.5688 1366.5 3.84586 1368.5 6.93279C1370.5 10.0197 1378 8.21901 1381.5 6.93279C1384.7 -0.564036 1396.83 6.01406 1402.5 10.2402C1405.3 13.7681 1428.67 11.7102 1440 10.2402V126H0V3.62536C4 -0.784532 24 4.72785 33.5 8.03528Z" fill="#030104"/>
</g>
<defs>
<filter id="filter0_n_43_36" x="0" y="0" width="1440" height="126" filterUnits="userSpaceOnUse" color-interpolation-filters="sRGB">
<feFlood flood-opacity="0" result="BackgroundImageFix"/>
<feBlend mode="normal" in="SourceGraphic" in2="BackgroundImageFix" result="shape"/>
<feTurbulence type="fractalNoise" baseFrequency="0.5 0.5" stitchTiles="stitch" numOctaves="3" result="noise" seed="8375" />
<feColorMatrix in="noise" type="luminanceToAlpha" result="alphaNoise" />
<feComponentTransfer in="alphaNoise" result="coloredNoise1">
<feFuncA type="discrete" tableValues="1 1 1 1 1 1 1 1 1 1 1 1 1 1 1 1 1 1 1 1 1 1 1 1 1 1 1 1 1 1 1 1 1 1 1 1 1 1 1 1 1 1 1 1 1 1 1 1 1 1 1 0 0 0 0 0 0 0 0 0 0 0 0 0 0 0 0 0 0 0 0 0 0 0 0 0 0 0 0 0 0 0 0 0 0 0 0 0 0 0 0 0 0 0 0 0 0 0 0 0 "/>
</feComponentTransfer>
<feComposite operator="in" in2="shape" in="coloredNoise1" result="noise1Clipped" />
<feFlood flood-color="rgba(0, 0, 0, 0.15)" result="color1Flood" />
<feComposite operator="in" in2="noise1Clipped" in="color1Flood" result="color1" />
<feMerge result="effect1_noise_43_36">
<feMergeNode in="shape" />
<feMergeNode in="color1" />
</feMerge>
</filter>
</defs>
</svg>

<svg xmlns="http://www.w3.org/2000/svg" width="1440" height="126" fill="none" viewBox="0 0 1440 126"><g filter="url(#a)"><path fill="#030104" d="M33.5 8.035c10.4-14.552 24.667-6.063 30.5 0l17 17.64L527 16.5l39 4.664h24.5l28 4.51H726l621-3.858c6.33-6.247 19.5-17.97 21.5-14.883s9.5 1.286 13 0c3.2-7.497 15.33-.919 21 3.307 2.8 3.528 26.17 1.47 37.5 0V126H0V3.625c4-4.41 24 1.103 33.5 4.41"/></g><defs><filter id="a" width="1440" height="126" x="0" y="0" color-interpolation-filters="sRGB" filterUnits="userSpaceOnUse"><feFlood flood-opacity="0" result="BackgroundImageFix"/><feBlend in="SourceGraphic" in2="BackgroundImageFix" result="shape"/><feTurbulence baseFrequency="0.5 0.5" numOctaves="3" result="noise" seed="8375" stitchTiles="stitch" type="fractalNoise"/><feColorMatrix in="noise" result="alphaNoise" type="luminanceToAlpha"/><feComponentTransfer in="alphaNoise" result="coloredNoise1"><feFuncA tableValues="1 1 1 1 1 1 1 1 1 1 1 1 1 1 1 1 1 1 1 1 1 1 1 1 1 1 1 1 1 1 1 1 1 1 1 1 1 1 1 1 1 1 1 1 1 1 1 1 1 1 1 0 0 0 0 0 0 0 0 0 0 0 0 0 0 0 0 0 0 0 0 0 0 0 0 0 0 0 0 0 0 0 0 0 0 0 0 0 0 0 0 0 0 0 0 0 0 0 0 0" type="discrete"/></feComponentTransfer><feComposite in="coloredNoise1" in2="shape" operator="in" result="noise1Clipped"/><feFlood flood-color="rgba(0, 0, 0, 0.15)" result="color1Flood"/><feComposite in="color1Flood" in2="noise1Clipped" operator="in" result="color1"/><feMerge result="effect1_noise_43_36"><feMergeNode in="shape"/><feMergeNode in="color1"/></feMerge></filter></defs></svg>
